src/assets/icons/sax/IconWeight.svg

<svg width="20" height="20" viewBox="0 0 24 24" fill="none" xmlns="http://www.w3.org/2000/svg">
<path d="M10 22H14C19 22 21 20 21 15V9C21 4 19 2 14 2H10C5 2 3 4 3 9V15C3 20 5 22 10 22Z" stroke="currentColor" stroke-width="1.5" stroke-linecap="round" stroke-linejoin="round"/>
<path d="M17.25 8.29004C14.26 5.63004 9.74 5.63004 6.75 8.29004L8.93 11.79C10.68 10.23 13.32 10.23 15.07 11.79L17.25 8.29004Z" stroke="currentColor" stroke-width="1.5" stroke-linecap="round" stroke-linejoin="round"/>
</svg>

<svg xmlns="http://www.w3.org/2000/svg" width="20" height="20" fill="none" viewBox="0 0 24 24">
  <path stroke="currentcolor" stroke-linecap="round" stroke-linejoin="round" stroke-width="1.5" d="M10 22h4c5 0 7-2 7-7V9c0-5-2-7-7-7h-4C5 2 3 4 3 9v6c0 5 2 7 7 7"/>
  <path stroke="currentcolor" stroke-linecap="round" stroke-linejoin="round" stroke-width="1.5" d="M17.25 8.29a7.9 7.9 0 0 0-10.5 0l2.18 3.5a4.6 4.6 0 0 1 6.14 0z"/>
</svg>
